!!!!SEGMENT:015-1b-Sm-002.krn
!!!COM: Chopin, Fryderyk
!!!OTL: Nocturne 2.
!!!OPS: Op. 15
!!!OPR: Trois Nocturnes Pour Le Piano
!!!OCL: Maurice Schlesinger
!!!NIFC-rismID: 300605215
!!!OMD: Larghetto. [quarter] = 40.
!!!system-decoration: {(s1,s2)}
**kern	**kern	**dynam
*part1	*part1	*part1
*staff2	*staff1	*
*clefF4	*clefG2	*
*k[f#c#g#d#a#e#]	*k[f#c#g#d#a#e#]	*
*M2/4	*M2/4	*
*	*	*
!LO:TX:a:t=sostenuto.	!	!
!	!	!LO:HP:a
8r	(<16.a#LL	>]
.	32bJJk	.
=1	=1	=1
!	!	!LO:HP:a
*ped	*	*
(>8CC#L\	16a#LL	>
.	16g#	.
8C#	16e#	]
.	16c#JJ	.
8B 8E#	8c#'L	.
*Xped	*	*
8C#J)	8c#')J	.
=2	=2	=2
*ped	*	*
!	!	!LO:HP:a
(>8FF#L\	[8c#L	>]
8C#	(<32c#LL]	.
.	32f#	.
.	32a#	.
.	32dd#JJJ	.
8A# 8F#	8cc#)/	.
!	!	!LO:HP:a
8C#J)	(<16.a#LL	>]
*Xped	*	*
.	32bJJk	.
=3	=3	=3
!	!	!LO:HP:a
*ped	*	*
(>8CC#L\	(<20a#LL	>
.	20a# 20g#	.
.	20e#	.
8C#	.	.
.	20dn	.
.	20c#JJ))	]
8B 8E#	[<8c#'L	.
*Xped	*	*
8C#J)	8c#'J]	.
=4	=4	=4
*ped	*	*
!	!	!LO:HP:a
(>8FF#L\	[<8c#L	>]
*	*Xtuplet	*
8C#	(<40c#LL]	.
.	40f#	.
.	40a#	.
.	40f#	.
.	40dd#JJJ	.
*	*tuplet	*
8c#J) 8A# 8F#	8cc#`)/	.
*Xped	*	*
!	!	!LO:HP:a
8r	(<16.bLL/	>]
.	32cc#JJk	.
=5	=5	=5
!!linebreak:original
!	!	!LO:HP:a
*ped	*	*
(>8DD#L\	16bLL	>
.	16a#	.
8D#	16f##X	.
.	16d#JJ)	]
8c# 8F##X	[<8d#'L	.
*Xped	*	*
8D#J)	8d#'J]	.
=6	=6	=6
8GG#'L\	8d#`	.
!	!	!LO:HP:a
(>8BJ 8G# 8D#	[>8ff#XL	>]
8BB'L)	(>16ff#L]	.
.	16dd#	.
[8d#J [>8G# 8D#	16f#	.
.	16g#JJ)	.
=7	=7	=7
*^	*	*
*	*^	*	*
8d#L] 8G#]	8ryy	[4.C#\	8a#')	.
!	!	!	!	!LO:HP:a
8d#	4F#	.	(<16.bLL	>]
.	.	.	32a#JJk	.
8B#X	.	.	8g#T<L	.
.	.	.	(<16qqf##Xm</LL	.
.	.	.	16qqg#/JJ	.
16.c#L	8E#	16.C#\LL]	16a#L))	.
.	.	.	32rg	.
32BnJJk	.	32C##X\JJk	(<32g#JJk	.
*	*v	*v	*	*
=8	=8	=8	=8
*	*	*^	*
4F#\	(>8A#L 8D#	8f#L	4.ryy	.
!	!	!	!	!LO:HP:a
.	8An 8BB#X	16.e#L	.	>]
.	.	32d#JJk	.	.
!	!	!	!	!LO:DY:a
4ryy	8E#) 8C#	8c#` 8G#)	.	<
.	.	(>(16qqA#/LL	.	.
.	.	16qqc#/	.	.
.	.	16qqf#/JJ)	.	.
.	8F#J 8C# 8FF#:	16.a#LL	8A#L	.
.	.	32bJJk	.	[
*v	*v	*	*	*
=9	=9	=9	=9
!!linebreak:original
!	!	!	!LO:DY:a
.	(<16qqe#/	.	.
*ped	*	*	*
(>8CC#L\	16a#)LL	16BJ	>
.	16g#	8.ryy	.
8C#	16e#	.	.
.	16c#)JJ	.	]
8B 8E#	[<8c#'L	4ryy	.
*Xped	*	*	*
8C#)J	8c#'J]	.	.
*	*v	*v	*
=10	=10	=10
!	!	!LO:DY:a
*ped	*	*
(>8FF#L\	[8c#L	>]
!	!	!LO:DY:a
8C#	(<32c#LL]	<
.	32f#	.
.	32a#	.
.	32dd#JJJ	.
8A# 8F#	8cc#`)/	[
!	!LO:TX:t= "7" pod septymola	!
8C#J)	(<56a#LLL	.
.	56b	.
.	56a#	.
.	56g##X	.
.	56a#	.
*Xped	*	*
.	56cc#	.
.	56b#XJJJ)	.
=11	=11	=11
*^	*	*
*	*	*Xtuplet	*
*	*	*cue	*
*	*	*rscale:4	*
*ped	*	*	*
8ryy	(>8FF#L	(<60bnLLL	.
.	.	60a#	.
.	.	60b)	.
.	.	(<60a#	.
!	!	!LO:TX:a:t=leggiero.	!
.	.	60a	.
.	.	60g#)	.
.	.	(<60a	.
.	.	60g#	.
4Dn	8Dn	.	.
.	.	60a)	.
.	.	(<60g#	.
.	.	60g	.
.	.	60f#)	.
.	.	(<60g	.
.	.	60f#	.
.	.	60g)	.
.	8B 8G#	(<60f#	.
.	.	60f	.
.	.	60e	.
.	.	60e#	.
.	.	60f#	.
.	.	60e#	.
.	.	(<60d#	.
.	.	60e#	.
8ryy	8C#)J	.	.
*Xped	*	*	*
.	.	60f#)	.
.	.	60a	.
.	.	(<60g	.
.	.	60e#	.
.	.	60f#	.
.	.	60d#	.
.	.	60g))JJJ	.
*	*	*rscale:1	*
*	*	*Xcue	*
*	*	*tuplet	*
*v	*v	*	*
=12	=12	=12
!!linebreak:original
*	*Xtuplet	*
.	8qg#/	.
*ped	*	*
(>8FF#L\	[>8c#L\	.
8C#	(>40c#LL]	.
.	40f#	.
.	40a#)	.
.	40ff#'	.
.	80r	.
.	(>80dd#JJJk	.
8c#J 8A# 8F#)	8cc#)	.
8r	(>48g##XLLL	>
.	48a#	.
.	48b	]
*Xped	*	*
.	48a#	.
.	48een	.
.	48dd#JJJ	.
=13	=13	=13
*ped	*	*
(>8DD#L\	20ddn'LL\	.
.	20cc#'	.
.	20a#'	.
8D#	.	.
.	20f##X'	.
.	20a#'JJ)	.
!	!	!LO:HP:a
8c# 8F##X	(<16.enLL	>]
.	32d#X)JJ	.
8D#J)	(<48d#LLL	.
.	48c##X	.
.	48d#	.
.	48f#y	.
.	48e	.
.	48d#JJJ)	.
*	*tuplet	*
=14	=14	=14
*ped	*	*
!	!LO:TX:t= "3" nad triola	!
!	!LO:TX:a:i:t=con forza	!
(>8GG#L	(>24d#'LL	.
.	24ff#'	.
.	24dd#'JJ)	.
8B 8G# 8D#	[>8fff#^L	.
8d# 8B 8G# 8F#	(>32fff#LL]	.
.	32ddd#	.
.	32bb	.
.	32gg#	.
8f#J) 8d# 8B 8G#	32ff#	.
*Xped	*	*
.	32dd#	.
!	!LO:TX:t= tak samo	!
.	48b	.
.	48f#	.
.	48g#)JJJ	.
=15	=15	=15
*^	*	*
*	*^	*	*
*ped	*	*	*	*
8ryy	2C#/	8CC#\	8a#L\	.
!	!	!	!	!LO:HP:b
8d#L	.	4F#^\	(>16.b^L	.
.	.	.	32a#JJk	.
8B#X	.	.	8g#TL\	.
.	.	.	16qqf##X/LL	.
.	.	.	16qqg#/JJ	.
16c#L	.	8E#\	16a#L)	.
32rc	.	.	32rg	.
32BnJJk	.	.	(>32g#JJk	.
*v	*v	*v	*	*
=16	=16	=16
!!linebreak:original
(>8FF#'L	4f#)	.
8c#' 8A#	.	.
8A#'J) 8F#	8r	.
8r	(<16.e#^>LL	.
!	!	!LO:DY:b
.	32f#)JJ	fz
=17	=17	=17
*ped	*	*
8CC#	(>8g#LL	p<
(>8e#L 8c# 8G#	16.cc#L	.
.	32dd#JJk	.
8c# 8G# 8E#	8ee#'	.
*Xped	*	*
8e#J) 8c# 8G#	8ee#'J)	[
=18	=18	=18
!	!LO:TX:a:t=dolciss.	!
*ped	*	*
(>8C#L	4ee#^	.
8f# 8c# 8An	.	.
.	(<8qqeen/L	.
.	8qqdd#/	.
.	8qqddn/	.
.	8qqcc#/	.
.	8qqccn/	.
.	8qqb/	.
.	8qqa#/J	.
8c# 8A 8F#	[>4an)\	.
*Xped	*	*
8f#J 8c# 8A)	.	.
=19	=19	=19
*ped	*	*
8C# 8CC#	8anXL]	.
(>8f#L 8c# 8An	(>16.cc#L	<
.	32ee#JJk	.
8c# 8A 8F#	12ff#'L	.
!	!LO:TX:t= "3" na triola	!
.	12ff#'	[
*Xped	*	*
8anJ 8c# 8A)	.	.
.	12ff#'J)	.
=20	=20	=20
!	!LO:TX:b:t=e poco ritenuto.	!
*ped	*	*
8Cn 8CCn	4ff#^	pp>
(>8f#L 8dn 8An	.	.
.	(<8qqffn/L	.
.	8qqeen/	.
.	8qqdd#/	.
.	8qqddn/	.
.	8qqcc#/	.
.	8qqccn/	.
.	8qqb/	]
.	8qqa#/J	.
8d 8A 8F#	[4an)\	.
*Xped	*	*
8f#J 8d 8A)	.	.
=21	=21	=21
!!linebreak:original
*ped	*	*
8BB 8BBB	(>8anXL]	<
(>8f#L 8d#X 8An	16.dd#L	.
.	32ee#XJJk	.
!	!LO:TX:b:t=cres.	!
8d# 8A 8F#	8ff#L	.
*Xped	*	*
8g##XJ) 8G##X	16.ff#L	.
.	32ff#JJk)	[
=22	=22	=22
*ped	*	*
8AA#X 8AAA#X	(>8.ff#L	>]
8a#X 8c#X 8A#X 8E#:	.	.
*Xped	*	*
.	16ee#J)	.
*ped	*	*
!	!LO:TX:t= "6" nad sekstola	!
8AA# 8AAA#	(>24dd#LL	<
.	24ee#	.
.	24dd#	.
8g##X 8d# 8B 8E#:	24cc##X	.
*Xped	*	*
.	24dd#	.
.	24ee#JJ)	.
.	.	[
=23	=23	=23
*ped	*	*
8AA# 8AAA#	(>8.dd#L	.
8a# 8c##X 8E#:	.	.
*Xped	*	*
!	!LO:TX:a:t=con for-----za.	!
.	16cc##XJk)	.
*ped	*	*
!	!LO:TX:t= tak samo tu i dalej	!
8AA# 8AAA#	(>24bLL	.
.	24cc#X	.
.	24bJJ	.
8f# 8G##X 8D#:	40a#LLL	.
*Xped	*	*
.	40b	.
.	40dd#	.
.	40cc#	.
.	40bJJJ)	.
=24	=24	=24
*	*^	*
!	!LO:TX:b:t=strigendo.	!	!
!LO:TX:t= to samo	!	!	!
(>24AAA#	8b^>L	4ryy	.
24C##XLL	.	.	.
24A#	.	.	.
24E#	[>8a#J	.	.
24c##X	.	.	.
24A#JJ)	.	.	.
*	*Xtuplet	*	*
!	!LO:TX:b:t=ritenuto.	!	!
4r	(>(>24a#LL]	4e#	>]
.	24a#'<	.	.
.	24a#'<	.	<
.	24a#'<	.	.
.	24a#'<	.	.
.	24b'<JJ)	.	.
.	.	.	[
*	*tuplet	*`	*
=25	=25	=25	=25
!!pagebreak:original
*	*	*^	*
*	*	*	*^	*
*	*	*Xtuplet	*	*	*
!	!	!	!LO:TX:b:a:t=doppio movimento.	!	!
*ped	*	*	*	*	*
8CC#'	(>5ee#L	20ryy	20e#LL	10.ryy	.
.	.	20g#/L	20g#	.	.
!	!	!	!LO:TX:b:t=sotto voce.	!	!
.	.	10b/J	20b	.	.
4B 4G# 4C#	.	.	.	.	.
.	.	.	20d#	10d#/L	.
.	.	.	.	.	.
.	20dd#J)	20ryy	20dd#JJ	.	.
.	(>5cc#L	20ryy	20c#LL	10c#/J	.
.	.	20g#/L	20g#	.	.
.	.	10b/J	20b	20ryy	<
(<8GG#'	.	.	.	.	.
.	.	.	20d#	10d#/L	.
.	20dd#J)	20	20dd#JJ	.	.
=26	=26	=26	=26	=26	=26
8CC#')	5ee#L	20ryy	20e#LL	10e#/J	.
.	.	20b/L	20b	.	.
.	.	10cc#/J	20cc#	20ryy	.
4B 4G# 4C#	.	.	.	.	.
.	.	.	20f#	10f#/L	.
.	.	.	.	.	.
.	20ff#Jk	20ryy	20ff#JJ	.	.
.	5gg#L	20ryy	20g#LL	10g#/J	.
.	.	20b/L	20b	.	.
.	.	10cc#/J	20cc#	20ryy	.
(<8GG#'	.	.	.	.	.
.	.	.	20a#	10a#/L	.
.	20aa#J	20	20aa#JJ	.	[
=27	=27	=27	=27	=27	=27
*^	*	*	*	*	*
8ryy	8CC#')	5gg#L	20ryy	20g#LL	10g#/J	>
.	.	.	20b/L	20b	.	]
*Xped	*	*	*	*	*	*
.	.	.	10cc#/J	20cc#	20ryy	.
8B 8G#L	4C#	.	.	.	.	.
.	.	.	.	20e#	10e#/L	.
.	.	.	.	.	.	.
.	.	20ee#Jk	20ryy	20ee#JJ	.	.
*ped	*	*	*	*	*	*
8B# 8G##J	.	5ff#L	20ryy	20f#LL	10f#/J	>
.	.	.	20g##/L	20g##	.	]
.	.	.	10b#/J	20b#	20ryy	.
8ryy	8CC#'	.	.	.	.	.
.	.	.	.	20d#	10d#/	.
.	.	20dd#Jk	20	20dd#JJ	.	.
*Xped	*	*	*	*	*	*
*	*	*	*v	*v	*	*
=28	=28	=28	=28	=28	=28
4.c# 4.C#\	(>8G#L	(>2ee#^>L	20e#LL	10.ryy	.
.	.	.	20g#	.	.
.	.	.	20cc#	.	.
.	8AnX	.	.	.	.
!	!	!	!	!LO:TX:t= decrescendo takze na dole	!
.	.	.	20an	10an/L	>
.	.	.	.	.	.
.	.	.	20cc#JJ)	.	.
.	8G#)J	.	20g#LL	(>10g#/J	.
.	.	.	20e#	.	]
.	.	.	20cc#	20ryy	.
(<8GG#'/	8ryy	.	.	.	.
.	.	.	20g#	10ryy	.
.	.	.	20cc#JJ))	.	.
*v	*v	*	*	*	*
=29	=29	=29	=29	=29
*	*	*	*^	*
!!linebreak:original
*ped	*	*	*	*	*
8CC#')	5ee#L	20ryy	20e#LL	10.ryy	.
.	.	20g#/L	20g#	.	.
.	.	10b/J	20b	.	.
4B 4G# 4C#	.	.	.	.	.
.	.	.	20d#	10d#/L	.
.	.	.	.	.	.
.	20dd#Jk	20ryy	20dd#JJ	.	.
!	!	!	!	!	!LO:HP:a
.	5cc#L	20ryy	20c#LL	10c#/J	<
.	.	20g#/L	20g#	.	.
.	.	10b/J	20b	20ryy	.
(<8GG#'	.	.	.	.	.
.	.	.	20d#	10d#/L	.
.	20dd#Jk	20	20dd#JJ	.	.
=30	=30	=30	=30	=30	=30
8CC#')	5ee#L	20ryy	20e#LL	10e#/J	.
.	.	20b/L	20b	.	.
.	.	10cc#/J	20cc#	20ryy	.
4B 4G# 4C#	.	.	.	.	.
.	.	.	20f#	10f#/L	.
.	.	.	.	.	.
.	20ff#Jk	20ryy	20ff#JJ	.	[
.	5gg#L	20ryy	20g#LL	10g#/J	.
.	.	20b/L	20b	.	.
.	.	10cc#/J	20cc#	20ryy	.
(<8GG#'	.	.	.	.	.
.	.	.	20a#	10a#/L	.
.	20aa#J	20	20aa#JJ	.	.
=31	=31	=31	=31	=31	=31
!	!	!	!	!	!LO:HP:a
8CC#')	5gg#L	20ryy	20g#LL	10g#/J	>
.	.	20b/L	20b	.	.
.	.	10cc#/J	20cc#	20ryy	.
(8B 8G# 8C#L	.	.	.	.	.
!	!	!	!	!LO:TX:t= po "cresc" kreski do konca taktu 32	!
.	.	.	20e#	10e#/L	]<
.	.	.	.	.	.
.	20ee#Jk	20ryy	20ee#JJ	.	.
*Xped	*	*	*	*	*
!	!	!	!	!	!LO:HP:a
8B# 8G## 8C#J)	5ff#L	20ryy	20f#LL	10f#/J	>
.	.	20g##/L	20g##	.	.
.	.	10b#/J	20b#	20ryy	.
*ped	*	*	*	*	*
8CC#	.	.	.	.	.
.	.	.	20d#	10d#/L	.
.	.	.	.	.	]
*Xped	*	*	*	*	*
.	20dd#Jk	20	20dd#JJ	.	.
=32	=32	=32	=32	=32	=32
!	!	!	!	!	!LO:HP:a
*ped	*	*	*	*	*
8c# 8G# 8C#'>L\	5ee#L	20ryy	20e#LL	10e#/	<
.	.	20g#/L	20g#	.	.
.	.	10a#/J	20a#	20ryy	.
8CC#'>J	.	.	.	.	.
*Xped	*	*	*	*	*
.	.	.	20e#	10e#/L	.
.	.	.	.	.	.
.	20ee#Jk	20ryy	20ee#JJ	.	.
*ped	*	*	*	*	*
8en 8A# 8F##'>L\	5ff##L	20ryy	20f##LL	10f##/J	.
.	.	20a#/L	20a#	.	.
.	.	10een/J	20een	20ryy	.
8C# 8CC#'>J	.	.	.	.	.
*Xped	*	*	*	*	*
.	.	.	20f##	10f##/L	.
.	20ff##Jk	20	20ff##JJ	.	.
.	.	.	.	.	[
=33	=33	=33	=33	=33	=33
!!linebreak:original
*^	*	*	*	*	*
*	*	*Xtuplet	*Xtuplet	*tuplet	*Xtuplet	*
*ped	*	*	*	*	*	*
2Dn^>	8DD#	8.gg#L	16.ryy	16.g#LL	12g#/J	fz
.	.	.	.	.	12ryy	.
.	.	.	32b/L	32bJJ	.	.
.	4B 4G# 4E#	.	16een/J	(>24eenLL	.	.
.	.	.	.	.	.	.
.	.	.	.	24f#	12f#/L	.
!	!	!LO:N:vis=24	!	!	!	!
.	.	16ff#J	16yy	.	.	.
!	!	!	!	!LO:TX:t= zamiana wartosci blednie sie wyswietla	!	!
.	.	.	.	24ff#)JJ	.	.
.	.	.	.	.	.	.
!	!	!	!	!	!	!LO:HP:a
.	.	8.eeL	16.ryy	16.enLL	12en/J	<
.	.	.	.	.	12ryy	.
.	.	.	32g#/L	32g#JJ	.	.
.	.	.	.	.	.	.
.	8B 8G# 8E#	.	16b/J	(>24bLL	.	.
.	.	.	.	.	.	.
.	.	.	.	24f#	12f#/L	.
!	!	!LO:N:vis=24	!	!	!	!
.	.	16ff#J	16	.	.	.
.	.	.	.	24ff#)JJ	.	.
*	*	*	*	*Xtuplet	*	*
=34	=34	=34	=34	=34	=34	=34
2Dn^>	8DDn	8.gg#L	16.ryy	16.g#LL	12g#/J	.
.	.	.	.	.	12ryy	.
.	.	.	32b/L	32bJJ	.	.
.	4B 4G# 4E#	.	16een/J	24eenLL	.	.
.	.	.	.	.	.	.
.	.	.	.	24an	12an/L	.
!	!	!LO:N:vis=24	!	!	!	!
.	.	16aanJ	16yy	.	.	.
.	.	.	.	24aanJJ	.	[
.	.	.	.	.	.	.
.	.	8.bbL	16.ryy	16.bLL	12b/J	.
.	.	.	.	.	12ryy	.
.	.	.	32ee#/L	32ee#JJ	.	.
.	.	.	.	.	.	.
.	8B 8G# 8E#	.	16gg#/J	24gg#LL	.	.
.	.	.	.	.	.	.
.	.	.	.	24cc#	12cc#/L	.
!	!	!LO:N:vis=24	!	!	!	!
.	.	16ccc#J	16	.	.	.
.	.	.	.	24ccc#JJ	.	.
=35	=35	=35	=35	=35	=35	=35
!	!	!	!	!	!	!LO:HP:a
4.Dn	8DDn	8.bbL	16.ryy	16.bLL	12b/J	>
.	.	.	.	.	12ryy	.
.	.	.	32een/L	32eenJJ	.	.
.	(>8B 8G#L	.	16gg#/J	24gg#LL	.	.
.	.	.	.	.	.	]
.	.	.	.	24g#	12g#/L	.
!	!	!LO:N:vis=24	!	!	!	!
.	.	16gg#J	16yy	.	.	.
.	.	.	.	24gg#JJ	.	.
!	!	!	!	!	!	!LO:HP:a
.	8cn 8F#)J	8.aanL	16.ryy	16.anLL	12an/J	>
.	.	.	.	.	12ryy	.
.	.	.	32ccn/L	32ccnJJ	.	.
.	.	.	.	.	.	.
8DDN	8ryy	.	16ff#/J	24ff#LL	.	]
.	.	.	.	.	.	.
.	.	.	.	24f#	12ryy	.
!	!	!LO:N:vis=24	!	!	!	!
.	.	16ff#J	16	.	.	.
.	.	.	.	24ff#JJ	.	.
*	*	*	*v	*v	*	*
=36	=36	=36	=36	=36	=36
8B^L	2G# 2En 2Dn	(>2gg#^>	16.g#LL	12ryy/J	.
.	.	.	.	12ryy	.
.	.	.	32bJJ	.	.
!LO:TX:t= crescendo tez pod dolna pieciolinia	!	!	!	!	!
8cn	.	.	24eenLL	.	.
!	!	!	!	!	!LO:HP:a
.	.	.	.	.	>
.	.	.	24ccn	12ccn/L	.
.	.	.	.	.	]
.	.	.	24eeJJ	.	.
.	.	.	.	.	.
8B	.	.	16.bLL	12b/J	.
.	.	.	.	12ryy	.
.	.	.	32g#JJ	.	.
8G#J	.	.	24eeLL	.	.
.	.	.	24b	12ryy	.
.	.	.	.	.	.
.	.	.	24ee)JJ	.	.
=37	=37	=37	=37	=37	=37
!!linebreak:original
*	*	*	*^	*	*
*ped	*	*	*	*	*	*
2D^n	8DDn	8.gg#L	16.ryy	16.g#LL	12ryy	.
.	.	.	.	.	12ryy	.
.	.	.	32b/L	32bJJ	.	.
.	4B 4G# 4E#	.	16een/J	24eenLL	.	.
.	.	.	.	.	.	.
.	.	.	.	24f#	12f#/L	.
!	!	!LO:N:vis=24	!	!	!	!
.	.	16ff#J	16yy	.	.	.
.	.	.	.	24ff#JJ	.	.
!	!	!	!	!	!	!LO:HP:a
.	.	8.eeL	16.ryy	16.enLL	12en/J	<
.	.	.	.	.	12ryy	.
.	.	.	32g#/L	32g#JJ	.	.
.	8B 8G# 8E#	.	16b/J	24bLL	.	.
.	.	.	.	24f#	12f#/L	.
!	!	!LO:N:vis=24	!	!	!	!
.	.	16ff#J	16	.	.	.
.	.	.	.	24ff#JJ	.	.
*v	*v	*	*	*	*	*
=38	=38	=38	=38	=38	=38
8Dn 8DDn\	8.gg#L	16.ryy	16.g#LL	12g#/J	.
.	.	.	.	12ryy	.
.	.	32b/L	32bJJ	.	.
4B 4G# 4E#	.	16een/J	24eenLL	.	.
.	.	.	24an	12an/L	.
!	!LO:N:vis=24	!	!	!	!
.	16aanJ	16yy	.	.	.
.	.	.	24aanJJ	.	.
!	!	!	!	!LO:TX:b:t=cres - -	!
.	8.bbL	16.ryy	16.bLL	12b/J	.
.	.	.	.	12ryy	.
.	.	32ee/L	32eeJJ	.	.
*Xped	*	*	*	*	*
8B 8G#	.	16gg#/J	24gg#LL	.	.
.	.	.	24cc#	12cc#/L	.
!	!LO:N:vis=24	!	!	!	!
.	16ccc#J	16	.	.	.
.	.	.	24ccc#JJ	.	[
=39	=39	=39	=39	=39	=39
*ped	*	*	*	*	*
!	!	!	!	!	!LO:HP:a
8C# 8CC#L	8.dddnL	16.ryy	16.ddnLL	12ddn/J	>
.	.	.	.	12ryy	.
.	.	32ee#X/L	32ee#XJJ	.	.
*Xped	*	*	*	*	*
8e# 8B 8G#J	.	16gg#/J	24gg#LL	.	]
.	.	.	.	.	.
.	.	.	24cc#	12cc#/L	.
!	!LO:N:vis=24	!	!	!	!
.	16ccc#J	16yy	.	.	.
.	.	.	24ccc#JJ	.	.
!	!	!	!	!LO:TX:b:t=cres - -	!
*ped	*	*	*	*	*
!	!	!	!	!	!LO:HP:a
8C# 8EE#L	8.dddL	16.ryy	16.ddLL	12dd/J	>
.	.	.	.	12ryy	.
.	.	32ff#/L	32ff#JJ	.	.
*Xped	*	*	*	*	*
8f# 8AnJ	.	16aan/J	24aanLL	.	]
.	.	.	24cc#	12cc#/L	.
!	!LO:N:vis=24	!	!	!	!
.	16ccc#J	16	.	.	.
.	.	.	24ccc#JJ	.	.
=40	=40	=40	=40	=40	=40
*ped	*	*	*	*	*
!	!	!	!	!	!LO:HP:a
8C# 8CC#L	8.dddnL	16.ryy	16.ddnLL	12ddn/J	<
.	.	.	.	12ryy	.
.	.	32ee#/L	32ee#JJ	.	.
*Xped	*	*	*	*	*
8e#X 8c# 8G#J	.	16gg#/J	24gg#LL	.	.
.	.	.	.	.	.
.	.	.	24cc#	12cc#/L	.
!	!LO:N:vis=24	!	!	!	!
.	16ccc#J	16yy	.	.	.
.	.	.	24ccc#JJ	.	[
*ped	*	*	*	*	*
!	!	!	!	!	!LO:HP:a
8C# 8EE#L	8.eeenL	16.ryy	16.eenLL	12een/J	>
.	.	.	.	12ryy	.
.	.	32ff#/L	32ff#JJ	.	.
.	.	.	.	.	.
*Xped	*	*	*	*	*
8dn 8An 8F#J	.	16aan/J	24aanLL	.	.
.	.	.	24dd	12dd/L	.
!	!LO:N:vis=24	!	!	!	!
.	16dddJ	16	.	.	]
.	.	.	24dddJJ	.	.
=41	=41	=41	=41=	=41	=41
!!linebreak:original
*^	*	*	*	*	*
*ped	*	*	*	*	*	*
!	!	!	!	!	!	!LO:HP:a
4C#/	8C# 8CC#L	8.dddnL	16.ryy	16.ddnLL	12ddnyyJ	>
.	.	.	.	.	12ryy	.
.	.	.	32ee#X/L	32ee#XJJ	.	.
*Xped	*	*	*	*	*	*
.	8c# 8E#XJ	.	16gg#/J	24gg#LL	.	.
.	.	.	.	.	.	.
.	.	.	.	24cc#	12cc#/L	.
!	!	!LO:N:vis=24	!	!	!	!
.	.	16ccc#J	16yy	.	.	]
.	.	.	.	24ccc#JJ	.	.
*ped	*	*	*	*	*	*
!	!	!	!	!	!	!LO:HP:a
4ryy	8GG# 8GGG#L\	8.ccc#L	16.ryy	16.cc#LL	12cc#/J	>
.	.	.	.	.	12ryy	.
.	.	.	32ddn/L	32ddnJJ	.	.
.	.	.	.	.	.	.
.	[>8B [>8F#J	.	16ff#/J	24ff#LL	.	.
.	.	.	.	24b	12b/L	.
!	!	!LO:N:vis=24	!	!	!	!
.	.	16bbJ	16	.	.	]
.	.	.	.	24bbJJ	.	.
=42	=42	=42	=42	=42	=42	=42
*	*^	*	*	*	*	*
!	!	!	!	!	!	!	!LO:HP:a
4ryy	8B] 8F#]/	8ryy	8.aanL	16.ryy	16.anLL	12an/J	>
.	.	.	.	.	.	12ryy	.
.	.	.	.	32b/L	32bJJ	.	.
.	4B 4F#^>/	8ryy	.	16ddn/J	24ddnLL	.	.
.	.	.	.	.	.	.	.
.	.	.	.	.	24g#	12g#/L	]
!	!	!	!LO:N:vis=24	!	!	!	!
.	.	.	16gg#J	16yy	.	.	.
.	.	.	.	.	24gg#JJ	.	.
!	!	!	!	!	!	!	!LO:HP:a
4BB/	.	8BBL	8.gg#L	16.ryy	16.g#LL	12g#/J	>
.	.	.	.	.	.	12ryy	.
!	!	!	!	!	!	!LO:TX:b:t=decres.	!
.	.	.	.	32b/L	32bJJ	.	.
.	.	.	.	.	.	.	.
.	8ryy	8G#J	.	16dd/J	24ddLL	.	.
.	.	.	.	.	24f#	12f#/L	]
*Xped	*	*	*	*	*	*	*
!	!	!	!LO:N:vis=24	!	!	!	!
.	.	.	16ff#J	16	.	.	.
.	.	.	.	.	24ff#JJ	.	.
*v	*v	*v	*	*	*	*	*
=43	=43	=43	=43	=43	=43
*ped	*	*	*	*	*
8CC#/	8.ff#L	16.ryy	16.f#LL	12f#/J	.
.	.	.	.	12ryy	.
.	.	32g#/L	32g#JJ	.	.
(>8G# 8C#L	.	16b/J	24bLL	.	.
.	.	.	.	.	.
.	.	.	24e#	12e#/L	.
!	!LO:N:vis=24	!	!	!	!
.	16ee#J	16yy	.	.	.
*Xped	*	*	*	*	*
!	!	!	!	!	!LO:DY:b
.	.	.	24ee#JJ	.	fz
8dn^<)J	8.ddnL	16.ryy	16.ddnLL	12ryy	>
.	.	.	.	12ryy	.
.	.	32ryy	32e#JJ	.	.
.	.	.	.	.	.
8r	.	16ryy	24g#LL	.	]
.	.	.	24c#	12c#/L	.
!	!LO:N:vis=24	!	!	!	!
.	16cc#J	16	.	.	.
.	.	.	24cc#JJ	.	.
*	*	*v	*v	*	*
=44	=44	=44	=44	=44
!	!	!	!LO:TX:b:t=dim.	!
!	!	!	!	!LO:HP:a
4r	8.ddnL	16.dnLL	12dn/J	>
.	.	.	12ryy	.
.	.	32e#JJ	.	.
.	.	24g#LL	.	.
.	.	24c#	12c#/L	]
!	!LO:N:vis=24	!	!	!
.	16cc#J	.	.	.
.	.	24cc#JJ	.	.
*ped	*	*	*	*
!	!	!	!	!LO:HP:a
8A# 8C# 8FF#\:	8.ddL	16.dLL	12d/J	>
.	.	.	12ryy	.
.	.	32f#JJ	.	.
.	.	.	.	.
8r	.	24a#LL	.	.
*Xped	*	*	*	*
.	.	24c#	12c#/L	]
!	!LO:N:vis=24	!	!	!
.	16cc#J	.	.	.
.	.	24cc#JJ	.	.
=45	=45	=45	=45	=45
!!linebreak:original
*ped	*	*	*	*
8E# 8GG# 8CC#/:	8.ddnL	16.dnLL	12dn/J	.
.	.	.	12ryy	.
.	.	32e#JJ	.	.
8r	.	24g#LL	.	.
.	.	24c#	12c#/L	.
!	!LO:N:vis=24	!	!	!
.	16cc#J	.	.	.
.	.	24cc#JJ	.	.
*Xped	*	*	*	*
*	*clefF4	*clefF4	*clefF4	*
8dn 8Dn^>\	16r	32r	8ryy	.
.	.	(>32E#/	.	.
.	16ryy	16G#/LL	.	.
8r	8	16C#/	8C#\	.
.	.	16c#/)JJ	.	.
=46	=46	=46	=46	=46
!	!	!	!	!LO:HP:a
4r	8.dnL	16.DnLL	12Dn/	>
.	.	.	12ryy	.
.	.	32E#JJ	.	.
.	.	24G#LL	.	]
.	.	.	.	.
.	.	24C#	12C#/L	pp
!	!LO:N:vis=24	!	!	!
.	16c#J	.	.	.
*ped	*	*	*	*
.	.	24c#JJ	.	.
!	!	!	!	!LO:HP:a
(<4FF# 4FFF#	8.dL	16.DLL	12D/J	>
.	.	.	12ryy	.
.	.	32F#JJ	.	.
.	.	.	.	.
.	.	24A#LL	.	]
.	.	24C#	12C#/L	.
*Xped	*	*	*	*
!	!LO:N:vis=24	!	!	!
.	16c#J	.	.	.
.	.	24c#JJ	.	.
=47	=47	=47	=47	=47
!	!	!	!	!LO:HP:a
*ped	*	*	*	*
!	!LO:TX:b:t=molto rallentando - -	!	!	!
*8ba	*	*	*	*
4CCC#)	(8.dnL	16.DnLL	12Dn/yy	>
*X8ba	*	*	*	*
.	.	.	12ryy	.
.	.	32E#JJ	.	.
.	.	24G#LL	.	]
.	.	.	.	.
.	.	24C#	12C#/L	.
!	!LO:N:vis=24	!	!	!
.	16c#J	.	.	.
!	!LO:TX:b:t=dim	!	!	!
.	.	24c#JJ)	.	.
!	!	!	!	!LO:HP:a
4r	(8.dL	16.DLL	12D/J	>
*Xped	*	*	*	*
.	.	.	12ryy	.
.	.	32E#JJ	.	.
.	.	.	.	.
.	.	24G#LL	.	]
.	.	24C#	12C#/L	.
!	!LO:N:vis=24	!	!	!
.	16c#J	.	.	.
.	.	24c#JJ)	.	.
=48	=48	=48	=48	=48
!	!	!	!	!LO:HP:a
!	!LO:TX:b:t=smorz - -	!	!	!
2r	(8.dnL	16.DnLL	12Dn/	>
.	.	.	12ryy	.
.	.	32E#JJ	.	.
.	.	24G#LL	.	]
.	.	.	.	.
.	.	24C#	12C#/L	.
!	!LO:N:vis=24	!	!	!
.	16c#J	.	.	.
.	.	24c#JJ)	.	.
!	!LO:TX:a:t=a Tempo 1'	!	!	!
*	*v	*v	*v	*
.	8r;>	.
!	!LO:TX:b:t=dolce.	!
.	.	.
*	*clefG2	*
!	!	!LO:HP:a
.	(16.a#L\	>]
.	32bJ)	.
=49	=49	=49
*	*tuplet	*
!!pagebreak:original
*ped	*	*
(>8CC#L\	(<16a#LL	>
.	16g#	.
8C#	16.e#	.
.	.	]
.	(<32c#)JJ	.
8B 8E#	8c#'L	.
*Xped	*	*
8C#J)	8c#')J	.
=50	=50	=50
*ped	*	*
(>8FF#L\	[8c#L	>]
8C#	32c#LL]	<
.	32f#	.
.	32a#	.
.	32dd#JJJ	.
8A# 8F#	8cc#/	[
!	!LO:TX:t= "7" pod septymola	!
8C#J)	(<56a#LLL	>
.	56b	.
.	56a#	]
.	56g##X	.
.	56a#	.
.	56cc#	.
*Xped	*	*
.	56b#XJJJ)	.
=51	=51	=51
*^	*	*
*	*	*Xtuplet	*
*	*	*cue	*
*	*	*rscale:8	*
*ped	*	*	*
!	!	!LO:TX:a:t=leggieriss.	!
8ryy	(>8FF#L	(<80bnLLL	.
.	.	80gg#X	.
.	.	80b	.
.	.	80a#	.
.	.	80ff##	.
.	.	80a#	.
.	.	80a	.
.	.	80ff#	.
.	.	80a	.
.	.	80g#	.
4Dn	8Dn	80ee#	.
.	.	80g#	.
.	.	80g	.
.	.	80een	.
.	.	80g	.
.	.	80f#	.
.	.	80dd#	.
.	.	80f#	.
.	.	80e#X)	.
.	.	(<80ddn	.
.	8B 8G#	80cc#	.
.	.	80ccn	.
.	.	80b	.
.	.	80a#	.
.	.	80a	.
.	.	80g#	.
.	.	80g	.
.	.	80f#	.
.	.	80e#	.
.	.	80f#	.
8ryy	8C#)J	80e#	.
.	.	80d#	.
.	.	80e#	.
.	.	80f#	.
.	.	80a#	.
.	.	80g	.
.	.	80e#	.
*Xped	*	*	*
.	.	80f#	.
.	.	80d#	.
.	.	80g)JJJ	.
*	*	*rscale:1	*
*	*	*Xcue	*
*	*	*tuplet	*
*v	*v	*	*
=52	=52	=52
!!linebreak:original
*	*Xtuplet	*
.	8qg#/	>
*ped	*	*
(>8FF#L\	[8c#L\	.
8C#	(56c#LL]	]
.	56f#	<
.	56a#	.
.	56cc#	.
.	56a#	.
.	56ff#')	[
.	112r	.
.	(>112dd#JJJk	.
8c#J 8A# 8F#)	8cc#)	.
*Xped	*	*
8r	(>16.bLL	>
.	32cc#)JJk	]
=53	=53	=53
*ped	*	*
(>8DD#L\	(<16bLL	>
.	16a#	.
8D#	16.f##X	]
.	32d#JJk	.
8c# 8F##X	8d#'L	.
*Xped	*	*
8D#J)	8d#'J)	.
=54	=54	=54
!	!LO:TX:a:t=con forza.	!
*ped	*	*
8GG#L 8GGG#\	24d#'LL	.
.	24ff#'	.
*Xped	*	*
.	24dd#'JJ	.
8BJ 8G# 8F# 8D#	[8fff#L	fz
*ped	*	*
8BBL 8BBB\	(>48fff#LL]	.
.	48aaa#	>
.	48ggg#	.
.	48fff#	.
.	48ddd#	.
.	48bb	.
[8d#J 8B 8G# 8F#	48aa#	.
.	48gg#	.
.	48ff#	.
.	48dd#	.
.	48f#	.
.	48g#JJJ	]
=55	=55	=55
!!linebreak:original
*^	*	*
*	*^	*	*
8d#L]	8ryy	[<2C#\	8a#`)\	.
!	!	!	!	!LO:HP:a
8d#	4F#	.	(<16.bLL	>]
.	.	.	32a#JJk	.
8B#X	.	.	8g#T<L	.
.	.	.	16qqf##Xm</LL	.
.	.	.	16qqg#/JJ	.
!	!	!	!	!LO:HP:a
16.c#L	16.E#LL	.	16.a#L	>]
32BnJJk	32BnJJk	.	32g#JJ)	.
*	*v	*v	*	*
=56	=56	=56	=56
*	*	*^	*
*	*	*tuplet	*	*
!	!	!	!	!LO:HP:a
8A#L	[<4.C#]	(>16.dd#LL	4.f#	>]
.	.	32cc#JJk	.	.
8d#	.	(>24cc#LL	.	.
.	.	24b	.	.
.	.	24a#)JJ	.	.
.	.	16qqf##X/LL	.	.
.	.	16qqg#/JJ	.	.
8B#X	.	8g#T<L	.	.
.	.	16qqf##m</LL	.	.
.	.	16qqg#/JJ	.	.
!	!	!	!	!LO:HP:a
16.c#L	16.C#LL]	16a#L	8e#	>
.	.	32r	.	]
32BnJJk	32C##XJJk	(<32g#JJ)	.	.
*	*Xtuplet	*Xtuplet	*	*
=57	=57	=57	=57	=57
8rfyy	(>8A#L 8D#	(<24f#LL)	(>[<4f#	.
.	.	24ff#	.	.
.	.	24ee#JJ	.	.
4d#	8An'J) 8BB#X	40gg#LLL)	.	.
.	.	40ggn	.	.
.	.	40ff#	.	.
.	.	40ffn	.	.
.	.	40eenJJJ	.	.
!	!	!LO:TX:b:t=dim.   rall:	!	!
.	4G# 4C#	48dd#LLL	8.f#L]	.
.	.	48b	.	.
.	.	48ddn	.	.
.	.	48a#X	.	.
.	.	48cc#	.	.
.	.	48anJJJ	.	.
!	!	!	!	!LO:HP:b
[<16dnLL	.	48ccnLLL	.	>
.	.	48g#	.	.
.	.	[48b^JJJ	.	.
(<48dL]	.	48bLLL]	16e#Jk	]
48c#	.	48a#X	.	.
48BJJJ)	.	48g#JJJ)	.	.
*v	*v	*	*	*
*	*v	*v	*
=58	=58	=58
!!linebreak:original
*ped	*	*
8FFF#'	8f#'	pp
*	*8va	*
*tuplet	*tuplet	*
(>24A#LL 24C#	[8dddd#^<L	fz
24A# 24C#	.	>
24A#JJ 24C#	.	.
8c#'L 8A# 8F#	(>16dddd#L]	.
!	!LO:TX:t= 3 nad triolami. Dalej z "6" podobnie. I w lewej rece tak samo	!
.	48cccc#L	.
.	48aaa#	.
.	48fff#JJJ)	]
8A#'J 8F# 8C#)	(>16bbbLL)	.
.	48aaa#L	.
.	48fff#	.
.	48ccc#JJJ)	.
=59	=59	=59
!	!LO:TX:b:t=dim.	!
*	*Xtuplet	*
8FF#	(>16ggg#LL	.
.	48fff#L	.
.	48ccc#	.
.	48aa#JJJ)	.
*	*X8va	*
!	!LO:TX:a:t=loco.	!
(>16A#LL 16F# 16C#	(>16ddd#LL	.
48A#'L 48F# 48C#	48ccc#L	.
48A#' 48F# 48C#	48aa#	.
48A#'JJJ 48F# 48C#	48ff#JJJ)	.
8c#'L 8A# 8F#	(>16bbLL	.
.	48aa#L	.
.	48ff#	.
.	48cc#JJJ)	.
8A#'J) 8F# 8C#	(>16gg#LL)	.
.	48ff#L	.
.	48cc#	.
.	48a#JJJ)	.
=60	=60	=60
*^	*	*
*Xtuplet	*	*tuplet	*
4ryy	8A#' 8C# 8FF#:\	N(>(>48dd#LLL\	.
.	.	48cc#	.
.	.	48a#	.
.	.	48f#	.
.	.	48b	.
.	.	48a#JJJ)	.
*	*	*Xtuplet	*
.	8r	48f#LLL\	.
.	.	48c#	.
.	.	48g#	.
.	.	48f#	.
.	.	48c#	.
*Xped	*	*	*
.	.	48A#JJJ	.
48d#LLL	8r	4ryy	.
48c#	.	.	.
48A#	.	.	.
48F#	.	.	.
*ped	*	*	*
48C#	.	.	.
48A#JJJ	.	.	.
48d#LLL	8CC#	.	.
48c#	.	.	.
48A#	.	.	.
48F#	.	.	.
48C#	.	.	.
*Xped	*	*	*
48A#JJJ	.	.	.
=61	=61	=61	=61
*ped	*	*	*
!!linebreak:original
!	!LO:TX:a:t=smorzando.	!	!
48d#LLL	4.FF# 4.FFF#	2r	.
48c#	.	.	.
48A#	.	.	.
48F#	.	.	.
48C#	.	.	.
48A#JJJ	.	.	.
48d#LLL	.	.	.
48c#	.	.	.
48A#	.	.	.
48F#	.	.	.
48C#	.	.	.
48A#JJJ	.	.	.
48d#LLL	.	.	.
48c#	.	.	.
48A#	.	.	.
48F#	.	.	.
*Xped	*	*	*
48C#	.	.	.
48A#JJJ	.	.	.
*ped	*	*	*
48d#LLL	8CC#	.	.
48c#	.	.	.
48A#	.	.	.
48F#	.	.	.
48C#	.	.	.
*Xped	*	*	*
48c#JJJN)	.	.	.
*v	*v	*	*
=62	=62	=62
!	!LO:TX:a:B::t=Fine	!
*ped	*	*
2FFF#;<	2a#;	.
==	==	==
!!pagebreak:original
*-	*-	*-
!!!system-decoration: {(s1,s2)}
!!title: @{OTL}; @{OPS} @{ONM} publisher: @{OCL}
!!!RDF**kern: > = above
!!!RDF**kern: < = below
!!!RDF**kern: N = linked
!!!ENC: Wojciech Jakubiak-Danek
!!!END: 2018-07-31
!!!EED: Jędrzej Mróz
!!!EST: 2018-08-01